svgs/wallme_wallpaper.svg

<svg width="192" height="192" viewBox="0 0 192 192" fill="none" xmlns="http://www.w3.org/2000/svg">
<path d="M66.3694 138.751L96.4082 123.892L121.415 135.748L91.3761 150.607L66.3694 138.751Z" stroke="black" stroke-width="6" stroke-linecap="round" stroke-linejoin="round"/>
<path d="M57 161.353L78.2753 150.83L95.9865 159.227L74.7109 169.75L57 161.353Z" stroke="black" stroke-width="6" stroke-linecap="round" stroke-linejoin="round"/>
<path d="M89.793 167.319L103.985 160.199L115.8 165.88L101.608 173L89.793 167.319Z" stroke="black" stroke-width="6" stroke-linecap="round" stroke-linejoin="round"/>
<path d="M96.8201 103.982V112.046" stroke="black" stroke-width="8" stroke-linecap="round" stroke-linejoin="round"/>
<path d="M134.496 59.5764L96.9188 22L59.3424 59.5764L96.9188 97.1528L134.496 59.5764Z" stroke="black" stroke-width="12" stroke-linecap="round" stroke-linejoin="round"/>
<path d="M115.706 78.3644L78.1306 40.7879" stroke="black" stroke-width="12" stroke-linecap="round" stroke-linejoin="round"/>
<path d="M78.1306 78.3644L115.706 40.7879" stroke="black" stroke-width="12" stroke-linecap="round" stroke-linejoin="round"/>
</svg>

<svg width="192" height="192" viewBox="0 0 192 192" fill="none" xmlns="http://www.w3.org/2000/svg"><path d="m66.37 138.751 30.038-14.859 25.007 11.856-30.039 14.859-25.007-11.856ZM57 161.353l21.275-10.523 17.712 8.397L74.71 169.75 57 161.353ZM89.793 167.319l14.192-7.12 11.815 5.681-14.192 7.12-11.815-5.681Z" stroke="#000" stroke-width="6" stroke-linecap="round" stroke-linejoin="round"/><path d="M96.82 103.982v8.064" stroke="#000" stroke-width="8" stroke-linecap="round" stroke-linejoin="round"/><path d="M134.496 59.576 96.919 22 59.342 59.576 96.92 97.153l37.577-37.577ZM115.706 78.364 78.131 40.788M78.13 78.364l37.576-37.576" stroke="#000" stroke-width="12" stroke-linecap="round" stroke-linejoin="round"/></svg>
